X:349
T:Island of Java
R:Reel
B:The Athole Collection
M:C|
L:1/8
K:C
~c2 ec Gcec|FcEc DG,B,G,|~c2 ec Gcec|fage c/c/c ~c2:|
~E2 Gc EcGc|~F2Ac FcAc|G2Bd GdBd|fdec cBAG|~E2Gc EcGc|
~F2Ac FcAc|fagf edec|GcBd c/c/c ~c2||

